X:1
T:The Well-Tempered Clavier Part I Fuga VII
T:BWV 852
T:J. S. Bach
%%score { ( 1 3 ) | ( 2 4 ) }
L:1/8
M:4/4
K:Eb
V:1 treble nm="Harp"
V:3 treble 
V:2 bass 
V:4 bass 
V:1
 B/G/F/G/ E/A/G/A/ cB z =A/F/ | ed d/4c/4d/4c/4d/4c/4d/4c/4 B/f/d/B/ A/f/d/A/ | Gagf e/c/d/e/ f2- | %3
 f/e/f/g/ a/f/B/a/ ge/g/ c'2- | c'd/f/ b2- bc/e/ ag | f2 g=d e2- ef | g2- g=a b4- | %7
 b/b/g/e/ _d/b/g/d/ ce a2- | a/a/f/d/ c/a/f/c/ Bd g2- | g2- g/c/d/e/ f2- fe- | %10
 e/d/c/d/ B/e/d/e/ gf z d/B/ | ag f2 f/b/g/e/ _d/b/g/d/ | ca z A d/a/f/d/ c/a/f/c/ | %13
 =Bg z G c/g/=e/c/ _B/g/e/B/ | =A/g/c/G/ _A/f/d/A/ G/f/d/=B/ G/e/c/G/ | %15
 ^F/e/c/=A/ =F/d/=B/F/ =E/d/B/G/ _E/c/G/E/ | D/c/A/F/ D/=B/=A/B/ cfed | %17
 c/=A/=B/c/ d2- d/c/d/e/ f/d/G/f/ | e/g/e/d/ c/c'/a/f/ d/f/d/c/ B/b/g/e/ | %19
 c/e/c/B/ A/a/f/d/ =B2 c2- | c=B c/B/c/d/ ed=e^f | g/d/c/d/ B/=e/d/e/ gf z2 | %22
 f/c/B/c/ A/d/c/d/ fe z2 | z/ B/e/c/ _d2 z/ c/f/=d/ e2 | z/ d/g/e/ f2 z/ e/g/b/ a/f/_B/g/ | %25
 fagf e/c/d/e/ f2- | f/e/f/g/ a/f/B/a/ g/b/g/e/ _d2 | c/c'/a/f/ e2 d/f/d/B/ _A2- | %28
 A/G/F/G/ E/A/G/A/ cB z =A/F/ | ed d/4c/4d/4c/4d/4c/4d/4c/4 BfdB | b4- bec_A | a4- adBG | %32
 g2- g/c/d/e/ f/e/d/c/ B/A/B/c/ | F2 z F ed z2 | f e2 d e/g/e/c/ A2- | A/f/d/B/ Ge G2 F2 | %36
 !fermata!E8 |] %37
V:2
 z8 | z8 | z8 | z8 | z8 | B,/G,/F,/G,/ E,/A,/G,/A,/ CB, z =A,/F,/ | %6
 ED D/4C/4D/4C/4D/4C/4D/4C/4 B,/F/D/B,/ A,/F/D/A,/ | G,E z E, A,/E/C/A,/ G,/E/C/G,/ | %8
 F,D z D, G,/D/B,/G,/ F,/_D/B,/G,/ | =E,/C/G,/E,/ F,/C/A,/F,/ D,/B,/F,/D,/ _E,/B,/G,/E,/ | %10
 B,,A,G,F, E,/C,/D,/E,/ F,2- | F,/E,/F,/G,/ A,/F,/B,,/A,/ G,B,G,E, | A, z z2 z A,F,D, | %13
 G, z4 G,=E,C, | F,E,D,C, =B,,G,,C,_B,, | =A,,=A,=B,G, CG,_A,E, | F,E,/F,/ G,G,, C, z z2 | z8 | %18
 z8 | z4 G,/E,/D,/E,/ C,/F,/E,/F,/ | A,G, z ^F,/D,/ CB, B,/4A,/4B,/4A,/4B,/4A,/4B,/4A,/4 | %21
 G,/B,/A,/B,/ G,/A,/F,/G,/ =E,/C/A,/F,/ C,/F,/C,/A,,/ | %22
 F,,/A,/G,/A,/ F,/G,/E,/F,/ D,/B,/G,/E,/ B,,/E,/B,,/G,,/ | E,,E,F,G, A,F,G,=A, | %24
 B,G,=A,=B, CC,D,E,- | E,/D,/C,/D,/ B,,/E,/D,/E,/ G,F, z D,/B,,/ | A,G, F,2 E,E,,F,,G,, | %27
 A,,F,,G,,=A,, B,,B,,C,D, | E,6- E,/D,/E,/F,/ | G,>F, E,F, B,,/F,/D,/B,,/ A,,/F,/D,/A,,/ | %30
 G,,G, z E,, A,,/E,/C,/A,,/ G,,/E,/C,/G,,/ | F,,F, z D,, G,,/D,/B,,/G,,/ F,,/D,/B,,/F,,/ | %32
 =E,,/C,/G,,/E,,/ F,,/C,/A,,/F,,/ D,,/B,,/F,,/D,,/ _E,,/B,,/G,,/E,,/ | %33
 B,,F,D,B,, =A,_A, z/ A,/F,/D,/ | B,,E,B,=B, C2- C/C/A,/F,/ | %35
 B,3[I:staff -1] F- F/D/E/B,/- B,/C/D/[I:staff +1]A,/ | %36
 B,/[I:staff -1]D/[I:staff +1]B,/G,/ G,/A,/F, !fermata!G,4 |] %37
V:3
 x8 | x8 | E/D/C/D/ B,/E/D/E/ GF z D/B,/ | AG G/4F/4G/4F/4G/4F/4G/4F/4 E/B/G/F/ E/c/=A/F/ | %4
 D/=A/F/E/ _D/B/G/E/ C/G/E/C/ =D/_A/E/c/ | d_dcB A/G/A/B/ c2- | c/B/c/d/ e/c/F/e/ dfdB | %7
 e z z2 z ecA | d z z2 z dBG | cB A2- A/c/B/A/ G2 | F2 B2- BA/G/ AF | D e2 d f z[I:staff +1] E2- | %12
 E/E/C/A,/ G,/E/C/G,/ F,A, D2- | D/D/B,/G,/ G,/D/B,/G,/ F,G, C2- | C2 B,C[I:staff -1] D z z2 | x8 | %16
 z4[I:staff +1] C/_B,/_A,/B,/ G,/C/=B,/C/ | %17
 EC[I:staff -1] z[I:staff +1] =B,/G,/[I:staff -1] FE E/4D/4E/4D/4E/4D/4E/4D/4 | %18
 C/=B,/C/E/ A2- A_B,/D/ G2- | GA,/C/ F2- F/G/ A2 G | F/E/F/G/ =A2- A/G/A/_B/ c/A/D/c/ | %21
 B2 B2- B/c/B/A/ G/F/E/F/ | A2 A2- A/c/B/A/ G/F/E/F/ | %23
 G2 z/ B/G/E/[I:staff +1] A,[I:staff -1] z z/ c/=A/F/ | %24
[I:staff +1] B,[I:staff -1] z z/ d/=B/G/[I:staff +1] C[I:staff -1] z z2 | z feA BA/G/ A/d/B/F/ | %26
 D E2 D E z z/ B/G/E/ | %27
[I:staff +1] B,[I:staff -1] z z/ c/=A/F/[I:staff +1] B,[I:staff -1] z z/ F/D/B,/ | %28
[I:staff +1] E,_DCB, A,/G,/A,/B,/ C2 | C/A,/B,/C/ E/C/F,/E/[I:staff -1] D z z2 | %30
 z/ B/e/g/ _d/^A/d/g/ c z z2 | z/ A/d/f/ c/A/c/f/ B z z2 | z B A4 GE- | %33
 E/D/C/D/ B,/E/D/E/ _GF z D/B,/ | x8 | x8 | z/ D3/2 C>_C !fermata!B,4 |] %37
V:4
 x8 | x8 | x8 | x8 | x8 | x8 | x8 | x8 | x8 | x8 | x8 | x8 | x8 | x8 | x8 | x8 | x8 | x8 | x8 | %19
 x8 | x8 | x8 | x8 | x8 | x8 | x8 | x8 | x8 | x8 | x8 | x8 | x8 | x8 | x8 | x8 | x8 | %36
 !fermata!E,,8 |] %37

